X:450
T: Peg Warren's
S: "Johnny O'Leary of Sliabh Luachra" (#6)
Z: B.Black
Q: 400
L: 1/8
M: 12/8
R: slide
K: G
Bcd B2G D3 D3|Bcd B2G A3 A2B|
c^cd e=cA B2c d2B|ABc B2A G3 G3 :|
Bcd d2B d3 d3|B2d d2B c3 c2A|
Bcd e2d B2c dcB|ABc B2A G3 G3 :|
